X: 954
T: Paddy O'Rafferty   #2
R: jig
%S: s:5 b:32(6+6+6+6+8)
B: O'Neill's 1850 #954
O: F.O'Neill
Z: Dan G. Petersen, dangp@post6.tele.dk
N: Should the 1st bar in the 3rd strain have ^c like bars 3 and 5? [JC]
M: 6/8
L: 1/8
K: G
|: GAB  DED |1 DcB AGE :|2 GAG GED :|3 DcB ABc | dcB  AGE | GAG GED :|
|: DBB  DAA |1 DBB AGE :|2 GAG GED :|3 DBB ABc | dcB  AGE | GAG GED :|
|: d^cd efg |1 ded dBG :|2 GAG GED :|3 ded def | gfe  dcB | GAG GED :|
|: BDD  EDD |1 BGB AGE :|2 GAG GED :|3 BGB ABc | dcB  AGE | GAG GED :|
|: B2G  A2G | B2G AGE | B2G  AGE | GAG GED ||  BGG  AGG | BGG ABc | dcB  AGE | GAG GED :|
